X:30
T: Esik eső, de nem ázok
O: Bogyiszló
Q: "Tempo guisto" 1/4=152
L:1/4
K:F
AA A/G/F/E/ | F2 D2 | 
G G G/E/F/G/ | A2 A/ z/ z | 
A F A/F/A/d/ | c2 A2 | 
G B A/G/F/E/ | D2 D/ z/ z | 

